X: 1
T: An Comhra Donn
R: hornpipe
M: 4/4
L: 1/8
K: Dmaj
|:FG|ABAG FAde|fgfe dcdA|BGdB AFDE|FEED E2FG|
ABAG FAde|fgfe dcdA|BGdB AF (3EFG|F2D2 D2:|
|:fg|ag (3fed gfec|dcde fdAF|GA (3BAG FADF|Efgf e2fg|
ag (3fed gfec|dcde fdAF|GA (3BAG (3FGA EG|F2D2 D2:|


Tune 1636	Setting 23031

